icons/1_Primary/Open Collective.svg

<svg xmlns="http://www.w3.org/2000/svg" viewBox="0 0 1024 1024">
   <circle cx="512" cy="512" r="512" style="fill:#297eff"/>
   <path d="M722.5 366.2C751.2 407.6 768 457.8 768 512s-16.8 104.4-45.5 145.8l-66.3-66.3c13-23.6 20.4-50.7 20.4-79.5 0-28.8-7.4-55.9-20.4-79.5l66.3-66.3zm-64.7-64.7-66.3 66.3c-23.6-13-50.7-20.4-79.5-20.4-90.9 0-164.6 73.7-164.6 164.6S421.1 676.6 512 676.6c28.8 0 55.9-7.4 79.5-20.4l66.3 66.3C616.4 751.2 566.2 768 512 768c-141.4 0-256-114.6-256-256s114.6-256 256-256c54.2 0 104.4 16.8 145.8 45.5z" style="fill:#fff"/>
</svg>

<svg width="1024" height="1024" viewBox="0 0 1024 1024" fill="none" xmlns="http://www.w3.org/2000/svg">
<g clip-path="url(#clip0_2_3036)">
<path d="M512 1024C794.77 1024 1024 794.77 1024 512C1024 229.23 794.77 0 512 0C229.23 0 0 229.23 0 512C0 794.77 229.23 1024 512 1024Z" fill="#728DBE"/>
<path d="M722.5 366.2C751.2 407.6 768 457.8 768 512C768 566.2 751.2 616.4 722.5 657.8L656.2 591.5C669.2 567.9 676.6 540.8 676.6 512C676.6 483.2 669.2 456.1 656.2 432.5L722.5 366.2ZM657.8 301.5L591.5 367.8C567.9 354.8 540.8 347.4 512 347.4C421.1 347.4 347.4 421.1 347.4 512C347.4 602.9 421.1 676.6 512 676.6C540.8 676.6 567.9 669.2 591.5 656.2L657.8 722.5C616.4 751.2 566.2 768 512 768C370.6 768 256 653.4 256 512C256 370.6 370.6 256 512 256C566.2 256 616.4 272.8 657.8 301.5Z" fill="white"/>
</g>
<defs>
<clipPath id="clip0_2_3036">
<rect width="1024" height="1024" fill="white"/>
</clipPath>
</defs>
</svg>
